content/blogs/regnskap/hva-er-efaktura/efaktura-private.svg

<svg xmlns="http://www.w3.org/2000/svg" width="800" height="500"><defs><linearGradient id="a" x1="0%" x2="100%" y1="0%" y2="100%"><stop offset="0%" style="stop-color:#f8f9fa;stop-opacity:1"/><stop offset="100%" style="stop-color:#e9ecef;stop-opacity:1"/></linearGradient><linearGradient id="b" x1="0%" x2="100%" y1="0%" y2="100%"><stop offset="0%" style="stop-color:#28a745;stop-opacity:1"/><stop offset="100%" style="stop-color:#1e7e34;stop-opacity:1"/></linearGradient><linearGradient id="c" x1="0%" x2="100%" y1="0%" y2="100%"><stop offset="0%" style="stop-color:#6c757d;stop-opacity:1"/><stop offset="100%" style="stop-color:#495057;stop-opacity:1"/></linearGradient></defs><path fill="url(#a)" stroke="#dee2e6" stroke-width="2" d="M0 0h800v500H0z"/><text x="400" y="40" fill="#212529" font-family="Arial, sans-serif" font-size="24" font-weight="bold" text-anchor="middle">
    eFaktura for Privatpersoner
  </text><rect width="120" height="80" x="50" y="80" fill="#007bff" stroke="#0056b3" stroke-width="2" rx="8"/><text x="110" y="105" fill="#fff" font-family="Arial, sans-serif" font-size="12" font-weight="bold" text-anchor="middle">
    Bedrift
  </text><text x="110" y="125" fill="#fff" font-family="Arial, sans-serif" font-size="10" text-anchor="middle">
    Sender eFaktura
  </text><text x="110" y="145" fill="#fff" font-family="Arial, sans-serif" font-size="9" text-anchor="middle">
    Automatisk til nettbank
  </text><path fill="none" stroke="#007bff" stroke-width="3" d="M170 120h60l-10-10m10 10-10 10"/><text x="200" y="110" fill="#007bff" font-family="Arial, sans-serif" font-size="10" text-anchor="middle">PEPPOL</text><rect width="140" height="80" x="250" y="80" fill="url(#b)" stroke="#1e7e34" stroke-width="2" rx="8"/><text x="320" y="105" fill="#fff" font-family="Arial, sans-serif" font-size="14" font-weight="bold" text-anchor="middle">
    Nettbank
  </text><text x="320" y="125" fill="#fff" font-family="Arial, sans-serif" font-size="10" text-anchor="middle">
    Mottar og behandler
  </text><text x="320" y="140" fill="#fff" font-family="Arial, sans-serif" font-size="10" text-anchor="middle">
    eFaktura automatisk
  </text><text x="320" y="155" fill="#fff" font-family="Arial, sans-serif" font-size="9" text-anchor="middle">
    Sikker lagring
  </text><path fill="none" stroke="#28a745" stroke-width="3" d="M390 120h60l-10-10m10 10-10 10"/><rect width="60" height="100" x="470" y="70" fill="url(#c)" stroke="#343a40" stroke-width="2" rx="15"/><rect width="40" height="70" x="480" y="85" fill="#fff" stroke="#dee2e6" rx="3"/><rect width="30" height="8" x="485" y="90" fill="#007bff" rx="2"/><text x="500" y="105" fill="#212529" font-family="Arial, sans-serif" font-size="8" text-anchor="middle">Faktura</text><rect width="25" height="4" x="485" y="110" fill="#6c757d" rx="1"/><rect width="30" height="4" x="485" y="118" fill="#6c757d" rx="1"/><rect width="20" height="4" x="485" y="126" fill="#6c757d" rx="1"/><rect width="30" height="12" x="485" y="135" fill="#28a745" rx="3"/><text x="500" y="143" fill="#fff" font-family="Arial, sans-serif" font-size="7" text-anchor="middle">Betal</text><rect width="100" height="60" x="570" y="90" fill="url(#c)" stroke="#343a40" stroke-width="2" rx="8"/><rect width="80" height="45" x="580" y="100" fill="#fff" stroke="#dee2e6" rx="3"/><rect width="70" height="6" x="585" y="105" fill="#007bff" rx="1"/><text x="620" y="118" fill="#212529" font-family="Arial, sans-serif" font-size="8" text-anchor="middle">Nettbank</text><rect width="50" height="3" x="585" y="125" fill="#6c757d" rx="1"/><rect width="60" height="3" x="585" y="132" fill="#6c757d" rx="1"/><rect width="25" height="8" x="585" y="138" fill="#28a745" rx="2"/><text x="597" y="144" fill="#fff" font-family="Arial, sans-serif" font-size="6" text-anchor="middle">Betal</text><text x="400" y="220" fill="#212529" font-family="Arial, sans-serif" font-size="18" font-weight="bold" text-anchor="middle">
    Funksjoner for Privatpersoner
  </text><rect width="140" height="70" x="80" y="240" fill="#d4edda" stroke="#28a745" stroke-width="2" rx="5"/><text x="150" y="260" fill="#155724" font-family="Arial, sans-serif" font-size="12" font-weight="bold" text-anchor="middle">
    Automatisk Mottak
  </text><text x="150" y="280" fill="#155724" font-family="Arial, sans-serif" font-size="10" text-anchor="middle">
    Fakturaer kommer direkte
  </text><text x="150" y="295" fill="#155724" font-family="Arial, sans-serif" font-size="10" text-anchor="middle">
    til nettbanken din
  </text><rect width="140" height="70" x="240" y="240" fill="#cce5ff" stroke="#007bff" stroke-width="2" rx="5"/><text x="310" y="260" fill="#004085" font-family="Arial, sans-serif" font-size="12" font-weight="bold" text-anchor="middle">
    Forhåndsvisning
  </text><text x="310" y="280" fill="#004085" font-family="Arial, sans-serif" font-size="10" text-anchor="middle">
    Se fakturainnhold før
  </text><text x="310" y="295" fill="#004085" font-family="Arial, sans-serif" font-size="10" text-anchor="middle">
    du godkjenner betaling
  </text><rect width="140" height="70" x="400" y="240" fill="#fff3cd" stroke="#ffc107" stroke-width="2" rx="5"/><text x="470" y="260" fill="#856404" font-family="Arial, sans-serif" font-size="12" font-weight="bold" text-anchor="middle">
    Planlegging
  </text><text x="470" y="280" fill="#856404" font-family="Arial, sans-serif" font-size="10" text-anchor="middle">
    Sett fremtidig
  </text><text x="470" y="295" fill="#856404" font-family="Arial, sans-serif" font-size="10" text-anchor="middle">
    betalingsdato
  </text><rect width="140" height="70" x="560" y="240" fill="#f8d7da" stroke="#dc3545" stroke-width="2" rx="5"/><text x="630" y="260" fill="#721c24" font-family="Arial, sans-serif" font-size="12" font-weight="bold" text-anchor="middle">
    Historikk
  </text><text x="630" y="280" fill="#721c24" font-family="Arial, sans-serif" font-size="10" text-anchor="middle">
    Oversikt over alle
  </text><text x="630" y="295" fill="#721c24" font-family="Arial, sans-serif" font-size="10" text-anchor="middle">
    betalte fakturaer
  </text><text x="400" y="350" fill="#212529" font-family="Arial, sans-serif" font-size="18" font-weight="bold" text-anchor="middle">
    Sikkerhet og Personvern
  </text><rect width="130" height="50" x="120" y="370" fill="#e2e3e5" stroke="#6c757d" stroke-width="2" rx="5"/><text x="185" y="390" fill="#495057" font-family="Arial, sans-serif" font-size="11" font-weight="bold" text-anchor="middle">
    BankID Autentisering
  </text><text x="185" y="405" fill="#495057" font-family="Arial, sans-serif" font-size="9" text-anchor="middle">
    Sikker pålogging og godkjenning
  </text><rect width="130" height="50" x="270" y="370" fill="#e2e3e5" stroke="#6c757d" stroke-width="2" rx="5"/><text x="335" y="390" fill="#495057" font-family="Arial, sans-serif" font-size="11" font-weight="bold" text-anchor="middle">
    Kryptert Kommunikasjon
  </text><text x="335" y="405" fill="#495057" font-family="Arial, sans-serif" font-size="9" text-anchor="middle">
    All data er beskyttet
  </text><rect width="130" height="50" x="420" y="370" fill="#e2e3e5" stroke="#6c757d" stroke-width="2" rx="5"/><text x="485" y="390" fill="#495057" font-family="Arial, sans-serif" font-size="11" font-weight="bold" text-anchor="middle">
    GDPR Compliance
  </text><text x="485" y="405" fill="#495057" font-family="Arial, sans-serif" font-size="9" text-anchor="middle">
    Personvernbeskyttelse
  </text><text x="400" y="460" fill="#6c757d" font-family="Arial, sans-serif" font-size="14" text-anchor="middle">
    Kan kombineres med AvtaleGiro for automatisk betaling
  </text><text x="400" y="480" fill="#6c757d" font-family="Arial, sans-serif" font-size="12" text-anchor="middle">
    Støttes av alle store norske banker
  </text></svg>

<svg width="800" height="500" xmlns="http://www.w3.org/2000/svg">
  <defs>
    <linearGradient id="bgGradient" x1="0%" y1="0%" x2="100%" y2="100%">
      <stop offset="0%" style="stop-color:#f8f9fa;stop-opacity:1" />
      <stop offset="100%" style="stop-color:#e9ecef;stop-opacity:1" />
    </linearGradient>
    <linearGradient id="bankGradient" x1="0%" y1="0%" x2="100%" y2="100%">
      <stop offset="0%" style="stop-color:#28a745;stop-opacity:1" />
      <stop offset="100%" style="stop-color:#1e7e34;stop-opacity:1" />
    </linearGradient>
    <linearGradient id="phoneGradient" x1="0%" y1="0%" x2="100%" y2="100%">
      <stop offset="0%" style="stop-color:#6c757d;stop-opacity:1" />
      <stop offset="100%" style="stop-color:#495057;stop-opacity:1" />
    </linearGradient>
  </defs>
  

  <rect width="800" height="500" fill="url(#bgGradient)" stroke="#dee2e6" stroke-width="2"/>
  

  <text x="400" y="40" text-anchor="middle" font-family="Arial, sans-serif" font-size="24" font-weight="bold" fill="#212529">
    eFaktura for Privatpersoner
  </text>
  

  <rect x="50" y="80" width="120" height="80" fill="#007bff" stroke="#0056b3" stroke-width="2" rx="8"/>
  <text x="110" y="105" text-anchor="middle" font-family="Arial, sans-serif" font-size="12" font-weight="bold" fill="white">
    Bedrift
  </text>
  <text x="110" y="125" text-anchor="middle" font-family="Arial, sans-serif" font-size="10" fill="white">
    Sender eFaktura
  </text>
  <text x="110" y="145" text-anchor="middle" font-family="Arial, sans-serif" font-size="9" fill="white">
    Automatisk til nettbank
  </text>
  

  <path d="M 170 120 L 230 120 L 220 110 M 230 120 L 220 130" stroke="#007bff" stroke-width="3" fill="none"/>
  <text x="200" y="110" text-anchor="middle" font-family="Arial, sans-serif" font-size="10" fill="#007bff">PEPPOL</text>
  

  <rect x="250" y="80" width="140" height="80" fill="url(#bankGradient)" stroke="#1e7e34" stroke-width="2" rx="8"/>
  <text x="320" y="105" text-anchor="middle" font-family="Arial, sans-serif" font-size="14" font-weight="bold" fill="white">
    Nettbank
  </text>
  <text x="320" y="125" text-anchor="middle" font-family="Arial, sans-serif" font-size="10" fill="white">
    Mottar og behandler
  </text>
  <text x="320" y="140" text-anchor="middle" font-family="Arial, sans-serif" font-size="10" fill="white">
    eFaktura automatisk
  </text>
  <text x="320" y="155" text-anchor="middle" font-family="Arial, sans-serif" font-size="9" fill="white">
    Sikker lagring
  </text>
  

  <path d="M 390 120 L 450 120 L 440 110 M 450 120 L 440 130" stroke="#28a745" stroke-width="3" fill="none"/>
  

  <rect x="470" y="70" width="60" height="100" fill="url(#phoneGradient)" stroke="#343a40" stroke-width="2" rx="15"/>
  <rect x="480" y="85" width="40" height="70" fill="#ffffff" stroke="#dee2e6" stroke-width="1" rx="3"/>
  

  <rect x="485" y="90" width="30" height="8" fill="#007bff" rx="2"/>
  <text x="500" y="105" text-anchor="middle" font-family="Arial, sans-serif" font-size="8" fill="#212529">Faktura</text>
  <rect x="485" y="110" width="25" height="4" fill="#6c757d" rx="1"/>
  <rect x="485" y="118" width="30" height="4" fill="#6c757d" rx="1"/>
  <rect x="485" y="126" width="20" height="4" fill="#6c757d" rx="1"/>
  

  <rect x="485" y="135" width="30" height="12" fill="#28a745" rx="3"/>
  <text x="500" y="143" text-anchor="middle" font-family="Arial, sans-serif" font-size="7" fill="white">Betal</text>
  

  <rect x="570" y="90" width="100" height="60" fill="url(#phoneGradient)" stroke="#343a40" stroke-width="2" rx="8"/>
  <rect x="580" y="100" width="80" height="45" fill="#ffffff" stroke="#dee2e6" stroke-width="1" rx="3"/>
  

  <rect x="585" y="105" width="70" height="6" fill="#007bff" rx="1"/>
  <text x="620" y="118" text-anchor="middle" font-family="Arial, sans-serif" font-size="8" fill="#212529">Nettbank</text>
  <rect x="585" y="125" width="50" height="3" fill="#6c757d" rx="1"/>
  <rect x="585" y="132" width="60" height="3" fill="#6c757d" rx="1"/>
  

  <rect x="585" y="138" width="25" height="8" fill="#28a745" rx="2"/>
  <text x="597" y="144" text-anchor="middle" font-family="Arial, sans-serif" font-size="6" fill="white">Betal</text>
  

  <text x="400" y="220" text-anchor="middle" font-family="Arial, sans-serif" font-size="18" font-weight="bold" fill="#212529">
    Funksjoner for Privatpersoner
  </text>
  

  <rect x="80" y="240" width="140" height="70" fill="#d4edda" stroke="#28a745" stroke-width="2" rx="5"/>
  <text x="150" y="260" text-anchor="middle" font-family="Arial, sans-serif" font-size="12" font-weight="bold" fill="#155724">
    Automatisk Mottak
  </text>
  <text x="150" y="280" text-anchor="middle" font-family="Arial, sans-serif" font-size="10" fill="#155724">
    Fakturaer kommer direkte
  </text>
  <text x="150" y="295" text-anchor="middle" font-family="Arial, sans-serif" font-size="10" fill="#155724">
    til nettbanken din
  </text>
  
  <rect x="240" y="240" width="140" height="70" fill="#cce5ff" stroke="#007bff" stroke-width="2" rx="5"/>
  <text x="310" y="260" text-anchor="middle" font-family="Arial, sans-serif" font-size="12" font-weight="bold" fill="#004085">
    Forhåndsvisning
  </text>
  <text x="310" y="280" text-anchor="middle" font-family="Arial, sans-serif" font-size="10" fill="#004085">
    Se fakturainnhold før
  </text>
  <text x="310" y="295" text-anchor="middle" font-family="Arial, sans-serif" font-size="10" fill="#004085">
    du godkjenner betaling
  </text>
  
  <rect x="400" y="240" width="140" height="70" fill="#fff3cd" stroke="#ffc107" stroke-width="2" rx="5"/>
  <text x="470" y="260" text-anchor="middle" font-family="Arial, sans-serif" font-size="12" font-weight="bold" fill="#856404">
    Planlegging
  </text>
  <text x="470" y="280" text-anchor="middle" font-family="Arial, sans-serif" font-size="10" fill="#856404">
    Sett fremtidig
  </text>
  <text x="470" y="295" text-anchor="middle" font-family="Arial, sans-serif" font-size="10" fill="#856404">
    betalingsdato
  </text>
  
  <rect x="560" y="240" width="140" height="70" fill="#f8d7da" stroke="#dc3545" stroke-width="2" rx="5"/>
  <text x="630" y="260" text-anchor="middle" font-family="Arial, sans-serif" font-size="12" font-weight="bold" fill="#721c24">
    Historikk
  </text>
  <text x="630" y="280" text-anchor="middle" font-family="Arial, sans-serif" font-size="10" fill="#721c24">
    Oversikt over alle
  </text>
  <text x="630" y="295" text-anchor="middle" font-family="Arial, sans-serif" font-size="10" fill="#721c24">
    betalte fakturaer
  </text>
  

  <text x="400" y="350" text-anchor="middle" font-family="Arial, sans-serif" font-size="18" font-weight="bold" fill="#212529">
    Sikkerhet og Personvern
  </text>
  

  <rect x="120" y="370" width="130" height="50" fill="#e2e3e5" stroke="#6c757d" stroke-width="2" rx="5"/>
  <text x="185" y="390" text-anchor="middle" font-family="Arial, sans-serif" font-size="11" font-weight="bold" fill="#495057">
    BankID Autentisering
  </text>
  <text x="185" y="405" text-anchor="middle" font-family="Arial, sans-serif" font-size="9" fill="#495057">
    Sikker pålogging og godkjenning
  </text>
  
  <rect x="270" y="370" width="130" height="50" fill="#e2e3e5" stroke="#6c757d" stroke-width="2" rx="5"/>
  <text x="335" y="390" text-anchor="middle" font-family="Arial, sans-serif" font-size="11" font-weight="bold" fill="#495057">
    Kryptert Kommunikasjon
  </text>
  <text x="335" y="405" text-anchor="middle" font-family="Arial, sans-serif" font-size="9" fill="#495057">
    All data er beskyttet
  </text>
  
  <rect x="420" y="370" width="130" height="50" fill="#e2e3e5" stroke="#6c757d" stroke-width="2" rx="5"/>
  <text x="485" y="390" text-anchor="middle" font-family="Arial, sans-serif" font-size="11" font-weight="bold" fill="#495057">
    GDPR Compliance
  </text>
  <text x="485" y="405" text-anchor="middle" font-family="Arial, sans-serif" font-size="9" fill="#495057">
    Personvernbeskyttelse
  </text>
  

  <text x="400" y="460" text-anchor="middle" font-family="Arial, sans-serif" font-size="14" fill="#6c757d">
    Kan kombineres med AvtaleGiro for automatisk betaling
  </text>
  
  <text x="400" y="480" text-anchor="middle" font-family="Arial, sans-serif" font-size="12" fill="#6c757d">
    Støttes av alle store norske banker
  </text>
</svg>
